client/public/static/images/ic/ic_reminders.svg

<svg fill="none" height="48" viewBox="0 0 56 48" width="56" xmlns="http://www.w3.org/2000/svg" xmlns:xlink="http://www.w3.org/1999/xlink"><linearGradient id="a" gradientUnits="userSpaceOnUse" x1=".366519" x2="54.6662" y1="10.0251" y2="16.1738"><stop offset="0" stop-color="#938eff"/><stop offset="1" stop-color="#b0acfb"/></linearGradient><clipPath id="b"><path d="m0 0h56v48h-56z"/></clipPath><g clip-path="url(#b)"><rect fill="url(#a)" height="34.2793" opacity=".4" rx="5" transform="matrix(.999773 -.102905 .0983729 .986376 0 14.1877)" width="52.7787"/><g stroke="#1a202c" stroke-linecap="round" stroke-linejoin="round"><path d="m36.3978 14.8513c0-2.0823-.8271-4.0793-2.2996-5.5517-1.4724-1.47241-3.4694-2.2996-5.5517-2.2996s-4.0793.82719-5.5517 2.2996c-1.4724 1.4724-2.2996 3.4694-2.2996 5.5517 0 9.1599-3.9257 11.777-3.9257 11.777h23.554s-3.9257-2.6171-3.9257-11.777z" fill="#fafdff" stroke-width="3"/><path d="m31.051 31.696c-.23.3966-.5602.7258-.9575.9547-.3973.2288-.8478.3493-1.3063.3493s-.9089-.1205-1.3062-.3493c-.3973-.2289-.7275-.5581-.9576-.9547" stroke-width="3"/><path d="m17.7539 11.0283c-4.1989 3.2587-1.4311 7.3622-1.4311 7.3622" stroke-width="2"/><path d="m39 11.0283c4.1989 3.2587 1.4311 7.3622 1.4311 7.3622" stroke-width="2"/><path d="m14.8789 7.46631c-6.6392 5.33109-2.4805 12.76119-2.4805 12.76119" stroke-width="2"/><path d="m41.875 7.46631c6.6392 5.33109 2.4805 12.76119 2.4805 12.76119" stroke-width="2"/></g></g></svg>

<svg width="56" height="48" viewBox="0 0 56 48" fill="none" xmlns="http://www.w3.org/2000/svg">
<g clip-path="url(#clip0)">
<rect opacity="0.4" width="52.7787" height="34.2793" rx="5" transform="matrix(0.999773 -0.102905 0.0983729 0.986376 0 14.1877)" fill="url(#paint0_linear)"/>
<path d="M36.3978 14.8513C36.3978 12.769 35.5707 10.772 34.0982 9.2996C32.6258 7.82719 30.6288 7 28.5465 7C26.4642 7 24.4672 7.82719 22.9948 9.2996C21.5224 10.772 20.6952 12.769 20.6952 14.8513C20.6952 24.0112 16.7695 26.6283 16.7695 26.6283H40.3235C40.3235 26.6283 36.3978 24.0112 36.3978 14.8513Z" fill="#FAFDFF" stroke="#1A202C" stroke-width="3" stroke-linecap="round" stroke-linejoin="round"/>
<path d="M31.051 31.696C30.821 32.0926 30.4908 32.4218 30.0935 32.6507C29.6962 32.8795 29.2457 33 28.7872 33C28.3287 33 27.8783 32.8795 27.481 32.6507C27.0837 32.4218 26.7535 32.0926 26.5234 31.696" stroke="#1A202C" stroke-width="3" stroke-linecap="round" stroke-linejoin="round"/>
<path d="M17.7539 11.0283C13.555 14.287 16.3228 18.3905 16.3228 18.3905" stroke="#1A202C" stroke-width="2" stroke-linecap="round" stroke-linejoin="round"/>
<path d="M39 11.0283C43.1989 14.287 40.4311 18.3905 40.4311 18.3905" stroke="#1A202C" stroke-width="2" stroke-linecap="round" stroke-linejoin="round"/>
<path d="M14.8789 7.46631C8.2397 12.7974 12.3984 20.2275 12.3984 20.2275" stroke="#1A202C" stroke-width="2" stroke-linecap="round" stroke-linejoin="round"/>
<path d="M41.875 7.46631C48.5142 12.7974 44.3555 20.2275 44.3555 20.2275" stroke="#1A202C" stroke-width="2" stroke-linecap="round" stroke-linejoin="round"/>
</g>
<defs>
<linearGradient id="paint0_linear" x1="0.366519" y1="10.0251" x2="54.6662" y2="16.1738" gradientUnits="userSpaceOnUse">
<stop stop-color="#938EFF"/>
<stop offset="1" stop-color="#B0ACFB"/>
</linearGradient>
<clipPath id="clip0">
<rect width="56" height="48" fill="white"/>
</clipPath>
</defs>
</svg>
